src/images/css-icon.svg

<svg width="29" height="32" viewBox="0 0 29 32" fill="none" xmlns="http://www.w3.org/2000/svg">
<g clip-path="url(#clip0_93_2)">
<g filter="url(#filter0_d_93_2)">
<path d="M14.4821 32.0874L2.6428 28.7957L0.00439453 -0.841949H28.9953L26.3542 28.7911L14.4821 32.0874Z" fill="#902BA9"/>
</g>
<path d="M23.7146 26.5254L26 3H14V29L23.7146 26.5254Z" fill="white" fill-opacity="0.15"/>
<path d="M5.64643 13.3485L5.96807 16.8803H14V13.3485H5.64643ZM5 6.2L5.32625 9.73182H14V6.2H5ZM14 22.521L13.9843 22.5251L9.98701 21.463L9.73145 18.6462H6.12844L6.63125 24.1917L13.9835 26.2L14 26.1956V22.521Z" fill="#EBEBEB"/>
<path d="M23.2687 13.3654L23.9893 6.21634H13.9894V9.74845H19.6144L19.2512 13.3654H13.9894V16.8975H18.9051L18.4416 21.4784L13.9893 22.5417V26.2163L22.1731 24.2096L22.2331 23.6128L23.1713 14.3139L23.2687 13.3654Z" fill="white"/>
</g>
<defs>
<filter id="filter0_d_93_2" x="-3.99561" y="-0.841949" width="36.9907" height="40.9294" filterUnits="userSpaceOnUse" color-interpolation-filters="sRGB">
<feFlood flood-opacity="0" result="BackgroundImageFix"/>
<feColorMatrix in="SourceAlpha" type="matrix" values="0 0 0 0 0 0 0 0 0 0 0 0 0 0 0 0 0 0 127 0" result="hardAlpha"/>
<feOffset dy="4"/>
<feGaussianBlur stdDeviation="2"/>
<feComposite in2="hardAlpha" operator="out"/>
<feColorMatrix type="matrix" values="0 0 0 0 0 0 0 0 0 0 0 0 0 0 0 0 0 0 0.25 0"/>
<feBlend mode="normal" in2="BackgroundImageFix" result="effect1_dropShadow_93_2"/>
<feBlend mode="normal" in="SourceGraphic" in2="effect1_dropShadow_93_2" result="shape"/>
</filter>
<clipPath id="clip0_93_2">
<rect width="29" height="32" fill="white"/>
</clipPath>
</defs>
</svg>

<svg width="29" height="32" fill="none" xmlns="http://www.w3.org/2000/svg"><g clip-path="url(#a)"><g filter="url(#b)"><path d="m14.482 32.087-11.84-3.291L.005-.842h28.991l-2.64 29.633-11.873 3.296z" fill="#902BA9"/></g><path d="M23.715 26.525 26 3H14v26l9.715-2.475z" fill="#fff" fill-opacity=".15"/><path d="m5.646 13.348.322 3.532H14V13.35H5.646zM5 6.2l.326 3.532H14V6.2H5zm9 16.321-.016.004-3.997-1.062-.256-2.817H6.128l.503 5.546 7.352 2.008.017-.004V22.52z" fill="#EBEBEB"/><path d="m23.269 13.365.72-7.149h-10v3.532h5.625l-.363 3.617H13.99v3.533h4.916l-.463 4.58-4.453 1.064v3.674l8.184-2.006.06-.597.938-9.3.098-.948z" fill="#fff"/></g><defs><clipPath id="a"><path fill="#fff" d="M0 0h29v32H0z"/></clipPath><filter id="b" x="-3.996" y="-.842" width="36.991" height="40.929" filterUnits="userSpaceOnUse" color-interpolation-filters="sRGB"><feFlood flood-opacity="0" result="BackgroundImageFix"/><feColorMatrix in="SourceAlpha" values="0 0 0 0 0 0 0 0 0 0 0 0 0 0 0 0 0 0 127 0" result="hardAlpha"/><feOffset dy="4"/><feGaussianBlur stdDeviation="2"/><feComposite in2="hardAlpha" operator="out"/><feColorMatrix values="0 0 0 0 0 0 0 0 0 0 0 0 0 0 0 0 0 0 0.25 0"/><feBlend in2="BackgroundImageFix" result="effect1_dropShadow_93_2"/><feBlend in="SourceGraphic" in2="effect1_dropShadow_93_2" result="shape"/></filter></defs></svg>
